X:1
T:Auld Graden Kirn
S:LP, Tom Hughes and his Border Fiddle (1981)
Z:Nigel Gatherer <gatherer:argonet.co.uk> tradtunes 2004-1-18
L:1/8
M:3/4
K:D
A2    | f>e d>B A>G | F>A d>f e>d | B2  d2  B2  | A4 \
f2    | g2  f2  a2  | a2  f2  d2  | B>c d>B c>d | e4 |
A2    | f>e d>B A>G | F>A d>f e>d | B2  d2  B2  | A4 \
f2    | g2  f2  a2  | a2  f2  e2  | d3     edc  | d3 ||
ef>g  | a3     faf  | a2  f2  d2  | c2  B2  A2  | g6 \
      | g3     fgf  | g2  f2  e2  | d2  c2  B2  | A4 |
d>f   | a3     faf  | a2  f2  d2  | c2  B2  A2  | g4 \
(3gag | f2  e2  d2  | e2  B2  c2  | d4      d2  | d4 |]
